svg/UnitedNations-Flags/flag-ar.svg

<?xml version="1.0" encoding="UTF-8" standalone="no"?>
<svg height="256" id="svg2474" inkscape:output_extension="org.inkscape.output.svg.inkscape" inkscape:version="0.46" sodipodi:docname="Flag_of_Argentina.svg" sodipodi:version="0.32" version="1.0" viewBox="-910 -585 1820 1170" width="256" xmlns="http://www.w3.org/2000/svg" xmlns:cc="http://creativecommons.org/ns#" xmlns:dc="http://purl.org/dc/elements/1.1/" xmlns:inkscape="http://www.inkscape.org/namespaces/inkscape" xmlns:rdf="http://www.w3.org/1999/02/22-rdf-syntax-ns#" xmlns:sodipodi="http://sodipodi.sourceforge.net/DTD/sodipodi-0.dtd" xmlns:svg="http://www.w3.org/2000/svg" xmlns:xlink="http://www.w3.org/1999/xlink">
  <metadata>
    <rdf:RDF xmlns:cc="http://web.resource.org/cc/" xmlns:dc="http://purl.org/dc/elements/1.1/" xmlns:rdf="http://www.w3.org/1999/02/22-rdf-syntax-ns#">
      <cc:Work rdf:about="">
        <dc:title></dc:title>
        <dc:description></dc:description>
        <dc:subject>
          <rdf:Bag>
            <rdf:li>unsorted</rdf:li>
          </rdf:Bag>
        </dc:subject>
        <dc:publisher>
          <cc:Agent rdf:about="http://www.openclipart.org/">
            <dc:title>Open Clip Art Library, Source: Wikimedia Commons, Source: Wikimedia Commons, Source: Wikimedia Commons, Source: Wikimedia Commons</dc:title>
          </cc:Agent>
        </dc:publisher>
        <dc:creator>
          <cc:Agent>
            <dc:title></dc:title>
          </cc:Agent>
        </dc:creator>
        <dc:rights>
          <cc:Agent>
            <dc:title></dc:title>
          </cc:Agent>
        </dc:rights>
        <dc:date></dc:date>
        <dc:format>image/svg+xml</dc:format>
        <dc:type rdf:resource="http://purl.org/dc/dcmitype/StillImage"/>
        <cc:license rdf:resource="http://en.wikipedia.org/wiki/Public_domain"/>
        <dc:language>en</dc:language>
      </cc:Work>
    </rdf:RDF>
  </metadata>
  <defs id="defs2521">
    <inkscape:perspective id="perspective2525" inkscape:persp3d-origin="392 : 168 : 1" inkscape:vp_x="0 : 252 : 1" inkscape:vp_y="0 : 1000 : 0" inkscape:vp_z="784 : 252 : 1" sodipodi:type="inkscape:persp3d"/>
  </defs>
  <sodipodi:namedview bordercolor="#666666" borderopacity="1.0" gridtolerance="10.0" guidetolerance="10.0" id="base" inkscape:current-layer="svg2474" inkscape:cx="392" inkscape:cy="252" inkscape:pageopacity="0.0" inkscape:pageshadow="2" inkscape:window-height="674" inkscape:window-width="640" inkscape:window-x="113" inkscape:window-y="243" inkscape:zoom="0.7130102" objecttolerance="10.0" pagecolor="#ffffff" showgrid="false"/>
  <title id="title2476">Flag of Argentina</title>
  <rect height="1170" id="blue" style="fill:#75aadb" width="1820" x="-910" y="-585"/>
  <rect height="390" id="white" style="fill:#ffffff" width="1820" x="-910" y="-195"/>
  <g id="sun" style="fill:#fcbf49;stroke:#843511;stroke-width:1.5">
    <g id="16rays">
      <g id="8rays">
        <g id="4rays">
          <g id="2rays">
            <path d="M -8,0 L -2,159.5 C -2,159.5 -2,162.5 0,162.5 C 2,162.5 2,159.5 2,159.5 L 8,0" id="path2485"/>
            <path d="M -4,0 L 0,109.5 L 4,0" id="path2487" style="fill:#843511;stroke:none"/>
            <g id="g2489" transform="matrix(0.9799247,0.1993679,-0.1993679,0.9799247,0,0)">
              <path d="M -4.5,53.5 C -9.5,75 1.5,89.5 -4,108.5 C -9.5,127.5 -1,140.5 0,148.5 C 1,156.5 -5,160 -3,161.5 C -1,163 5,158 5.5,147 C 6,136 -1.5,131.25 5,108 C 11.5,84.75 1,77 8,56" id="path2491"/>
              <path d="M -1,58 C -4,79 6,90.5 0,109 C 8,95 -2,81 3,59" id="path2493" style="fill:#843511;stroke:none"/>
            </g>
          </g>
          <use height="1170" id="use2495" transform="scale(-1,-1)" width="1820" x="0" xlink:href="#2rays" y="0"/>
        </g>
        <use height="1170" id="use2497" transform="matrix(0,1,-1,0,0,0)" width="1820" x="0" xlink:href="#4rays" y="0"/>
      </g>
      <use height="1170" id="use2499" transform="matrix(0.7071068,0.7071068,-0.7071068,0.7071068,0,0)" width="1820" x="0" xlink:href="#8rays" y="0"/>
    </g>
    <use height="1170" id="use2501" transform="matrix(0.9238795,0.3826834,-0.3826834,0.9238795,0,0)" width="1820" x="0" xlink:href="#16rays" y="0"/>
    <circle cx="0" cy="0" id="circle2503" r="65" sodipodi:cx="0" sodipodi:cy="0" sodipodi:rx="65" sodipodi:ry="65" style="stroke-width:1"/>
    <g id="face_right" style="fill:#843511;stroke:none">
      <path d="M 41,-14 C 29.5,-24 15,-25.5 7,-18 C 1.1936273,-10.23694 1.7110236,-1.0962716 8.5,8.5 C 8,8.5 7,9 6.5,9.5 C 1.457445,-0.10281648 0.59005143,-9.991103 4,-19 C 15,-28 30,-29 41,-14" id="eyebrow_nose"/>
      <path d="M 23,-17 C 16.5,-17 15,-15.5 12,-13 C 9,-10.5 7.5,-11 7,-10.5 C 6.5,-10 7,-8.5 8,-9 C 9,-9.5 11,-10.5 14,-13 C 17,-15.5 20,-15.5 23,-15.5 C 32,-15.5 37,-8 38,-8.5 C 39,-9 33,-17 23,-17" id="uppalpebra"/>
      <path d="M 34.5,-8.5 C 28,-15.5 16,-16 11,-8 L 13,-8 C 18,-16 30,-12.5 31,-9 L 31,-8" id="upeyecontour"/>
      <circle cx="22" cy="-9" id="pupil" r="4.5" sodipodi:cx="22" sodipodi:cy="-9" sodipodi:rx="4.5" sodipodi:ry="4.5"/>
      <path d="M 11,-8 C 16,-3.5 27,-3 34.5,-8.5 L 31,-9 C 26,-3.5 18,-4 13,-8 L 13,-9" id="loweyecontour"/>
      <path d="M 35,-6 C 26.5,0.5 18,0 13,-3 C 8,-6 8,-7 9,-7 C 10,-7 11,-6 15,-4 C 19,-2 25,-2 35,-6" id="lowpalpebra"/>
      <path d="M 10.5,9 C 11.91609,9.5034893 12.741084,10.977139 12.430035,12.447534 C 12.118986,13.917928 10.767895,14.931246 9.2692225,14.818143 C 7.7705501,14.70504 6.5868446,13.500423 6.5,12 C 6,13 4,16 0,16 L -1,16 L 0,17.5 C 1,17.5 4,17.5 6,16 C 7.1633883,17.669092 9.3019644,18.349966 11.216194,17.660715 C 13.130424,16.971465 14.344072,15.083568 14.176399,13.055952 C 14.008726,11.028336 12.501448,9.3654448 10.5,9" id="nose"/>
      <path d="M 16.5,30 C 12,27 10,22.5 5,22.5 C 4,22.5 2,23 0,24 L -1,24 L 0,25.5 C 2,25.5 5,23 8.5,25 C 12,27 14,29 16.5,30" id="uplip"/>
      <path d="M 15,30 C 5,27 3,29 0,29 L -1,29 L 0,31 C 4,31 6,28 15,30" id="midlip"/>
      <path d="M 16.5,30 C 5.5,29 9,35.5 0,35.5 L -1,35.5 L 0,37 C 11,37 6,31 16.5,30" id="path2515"/>
      <path d="M 9,46 C 9,41.029437 4.9705627,37 5.5109106e-16,37 C -4.9705627,37 -9,41.029437 -9,46 C -8.0103271,41.830032 -4.2858007,38.886001 5.6639914e-16,38.886001 C 4.2858007,38.886001 8.0103271,41.830032 9,46" id="chin"/>
    </g>
    <use height="1170" id="use2518" transform="scale(-1,1)" width="1820" x="0" xlink:href="#face_right" y="0"/>
  </g>
</svg>

<svg height="256" viewBox="-910 -585 1820 1170" width="256" xmlns="http://www.w3.org/2000/svg" xmlns:xlink="http://www.w3.org/1999/xlink"><path fill="#75aadb" d="m-910-585h1820v1170h-1820z"/><path fill="#fff" d="m-910-195h1820v390h-1820z"/><g fill="#fcbf49" stroke="#843511" stroke-width="1.5"><g id="0"><g id="2"><g id="3"><g id="4"><path d="m-8 0l6 159.5c0 0 0 3 2 3 2 0 2-3 2-3l6-159.5"/><path d="m-4 0l4 109.5 4-109.5" fill="#843511" stroke="none"/><g transform="matrix(.97992.19937-.19937.97992 0 0)"><path d="m-4.5 53.5c-5 21.5 6 36 .5 55-5.5 19 3 32 4 40 1 8-5 11.5-3 13 2 1.5 8-3.5 8.5-14.5.5-11-7-15.75-.5-39 6.5-23.25-4-31 3-52"/><path d="m-1 58c-3 21 7 32.5 1 51 8-14-2-28 3-50" fill="#843511" stroke="none"/></g></g><use height="1170" transform="scale(-1-1)" width="1820" xlink:href="#4"/></g><use height="1170" transform="matrix(0 1-1 0 0 0)" width="1820" xlink:href="#3"/></g><use height="1170" transform="matrix(.70711.70711-.70711.70711 0 0)" width="1820" xlink:href="#2"/></g><use height="1170" transform="matrix(.92388.38268-.38268.92388 0 0)" width="1820" xlink:href="#0"/><circle r="65" stroke-width="1"/><g id="1" fill="#843511" stroke="none"><path d="m41-14c-11.5-10-26-11.5-34-4-5.806 7.763-5.289 16.904 1.5 26.5-.5 0-1.5.5-2 1-5.04-9.603-5.91-19.491-2.5-28.5 11-9 26-10 37 5"/><path d="m23-17c-6.5 0-8 1.5-11 4-3 2.5-4.5 2-5 2.5-.5.5 0 2 1 1.5 1-.5 3-1.5 6-4 3-2.5 6-2.5 9-2.5 9 0 14 7.5 15 7 1-.5-5-8.5-15-8.5"/><path d="m34.5-8.5c-6.5-7-18.5-7.5-23.5.5h2c5-8 17-4.5 18-1v1"/><circle cx="22" cy="-9" r="4.5"/><path d="m11-8c5 4.5 16 5 23.5-.5l-3.5-.5c-5 5.5-13 5-18 1v-1"/><path d="m35-6c-8.5 6.5-17 6-22 3-5-3-5-4-4-4 1 0 2 1 6 3 4 2 10 2 20-2"/><path d="m10.5 9c1.416.503 2.241 1.977 1.93 3.448-.311 1.47-1.662 2.484-3.161 2.371-1.499-.113-2.682-1.318-2.769-2.818-.5 1-2.5 4-6.5 4h-1l1 1.5c1 0 4 0 6-1.5 1.163 1.669 3.302 2.35 5.216 1.661 1.914-.689 3.128-2.577 2.96-4.605-.168-2.028-1.675-3.691-3.676-4.056"/><path d="m16.5 30c-4.5-3-6.5-7.5-11.5-7.5-1 0-3 .5-5 1.5h-1l1 1.5c2 0 5-2.5 8.5-.5 3.5 2 5.5 4 8 5"/><path d="m15 30c-10-3-12-1-15-1h-1l1 2c4 0 6-3 15-1"/><path d="m16.5 30c-11-1-7.5 5.5-16.5 5.5h-1l1 1.5c11 0 6-6 16.5-7"/><path d="m9 46c0-4.971-4.03-9-9-9-4.971 0-9 4.03-9 9 .99-4.17 4.714-7.114 9-7.114 4.286 0 8.01 2.944 9 7.114"/></g><use height="1170" transform="scale(-1 1)" width="1820" xlink:href="#1"/></g></svg>
